X: 132200
T: Mount the Stage
S: Fitzmaurice Collection
Z: BB
L: 1/8
M: 6/8
R: jig
Q: 1/4 = 170
K: D
d | AFE EFE | AFD E2F | AFE EFE | AFD D2F |
AFE EFE | AFE E2F | DFA B2G | AFD D2 :|
A | BcB Bcd | AFE EFA | BcB Bcd | AFD DFA |
BcB Bcd | AFE E2F | DFA B2G | AFD D2 :|
B | AFF dFF | AGF EFG | AFF dFF | AFD DEF |
AFF dFF | AGF E2F | DFA B2G | AFD D2 :|
